X:1
T:Title
%%score 1 { 2 | 3 }
L:1/8
Q:1/4=107
M:4/4
K:C
V:1 treble nm="Grand Piano, Soprano"
V:2 bass nm="Choir Pad, From the Deeps, to Thee"
V:3 bass 
V:1
 [CF]2 [EG]2 [FA]2 [CF]2 | [EG]2 [D_B]2 [^CA]4 | [DA]2 [DB]2 [Cc]2 [CA]2 | [FB]2 [Ed]2 [Ec]4 | %4
w: By~William~Bartholomew,~1854 * * *||||
 [Ac]2 [Ad]2 [^Ge]4 | [GB]2 [Gc]2 [Fd]4 | [EA]2 [D_B]2 [Cc]2 [DF]2 | [_B,G]2 [CE]2 [A,F]4 | %8
w: ||||
 F2 [CG]2 [C^G]2 [^CF]2 | [^CG]2 [=C_B]2 [C^G]4 | [C^G]2 [^C_B]2 [_Ec]2 [EG]2 | %11
w: |||
 [F_B]2 [_E^c]2 [E=c]4 | [^Gc]2 [=G^c]2 [^G_e]4 | [G_B]2 [^Fc]2 [=F^c]4 | %14
w: |||
 [F^G]2 [F_B]2 [Ec]2 [CF]2 | [^CF]2 [=CE]2 [CF]4 | [CF]2 [EG]2 [FA]2 [CF]2 | [DG]2 [E_B]2 [FA]4 | %18
w: ||||
 A2 [GB]2 [Ac]2 [EA]2 | [FB]2 [Ed]2 [Ec]4 | [Ac]2 [Bd]2 [ce]4 | [GB]2 [Gc]2 [Gd]4 | %22
w: ||||
 [CA]2 [E_B]2 [Fc]2 [CF]2 | [DG]2 [CE]2 [CF]4 | [CF]3 [CF] [DF]2 [DF]2 | [CF]2 [CE]2 [CF]4- | %26
w: ||||
 [CF]4 z4 |] %27
w: |
V:2
 A,2 C2 C2 A,2 | G,2 G,2 E,4 | F,2 F,2 G,2 A,2 | A,2 ^G,2 A,4 | E2 A,2 B,4 | B,2 G,2 A,4 | %6
 A,2 F,2 F,2 A,2 | G,2 G,2 F,4 | ^C2 =C2 ^G,2 G,2 | G,2 E,2 F,4 | ^G,2 =G,2 ^G,2 G,2 | %11
 ^G,2 =G,2 ^G,4 | _E2 E2 E4 | _E2 E2 ^C4 | ^G,2 F,2 =G,2 ^G,2 | G,2 _B,2 ^G,4 | %16
 A,2[K:treble] C2 C2 A,2 | G,2 C2 C4 | C2 E2 E2 C2 | B,2 ^G,2 A,4 | E2 G2 G4 | %21
 F2 EC[K:bass] B,2 _B,2 | A,2 C2 C2 A,2 | G,2 G,2 A,4 | A,3 A, _B,2 B,2 | A,2 G,2 A,4- | A,4 z4 |] %27
V:3
 F,2 C,2 F,,2 A,,2 | C,2 G,,2 A,,4 | D,2 D,2 E,2 F,2 | D,2 E,2 A,,4 | A,2 F,2 E,4 | G,2 E,2 D,4 | %6
 C,2 _B,,2 A,,2 D,2 | G,,2 C,2 F,,4 | ^G,2 G,2 F,2 ^C,2 | _B,,2 C,2 F,,4 | F,2 _E,2 ^G,,2 C,2 | %11
 ^C,2 _E,2 ^G,,4 | ^G,2 _B,2 C4 | _E,2 ^G,2 ^C,4 | ^C,2 C,2 =C,2 ^G,,2 | _B,,2 C,2 F,4 | %16
 F,2 C,2 F,2 F,2 | _B,,2 C,2 F,,4 | F,2 E,2 A,2 A,2 | D,2 E,2 A,,4 | A,2 G,2 C4 | D2 .C2 G,4 | %22
 F,2 G,2 A,2 A,,2 | _B,,2 C,2 F,4 | _E,3 E, D,2 _B,,2 | C,2 C,2 F,,4- | F,,4 z4 |] %27

